!!!COM: Robert Schumann
!!!CNT: Deutsch
!!!TXO: Deutsch
!!!OTL: Es treibt mich hin
!!!LYR: Heine
!!!OPR: Liederkreis
!!!OPS: Op. 24
!!!ONM: No. 2
!!!ENC: Ben Fuhrman
!!!YOR: Schumann Lieder - Max Friedlaender, ed.,
!!!YOR: New York: C. F. Peters, Vol. 2
!!!ODT: 1840/
!!NB: Vocal melody and text only encoded.
!!NB: First instance of melodic material only encoded.
**kern	**silbe
*clefG2	*
*k[]	*
*M3/8	*
!!created: 6/1/06 10:05
!!proofed and posted: 6/1/06 10:05
!!edit time:40 minutes
=4	=4
8r	.
8r	.
{8e	{Es
=5	=5
4a	treibt
8g#	mich
=6	=6
4a	hin,
8b	es
=7	=7
4cc	treibt
8dd	mich
=8	=8
4b	her!
8b	Noch
=9	=9
8.b	we-
16b	-ni-
8b	-ge
=10	=10
8ee	Stun-
8b	-den,
8b	dann
=11	=11
8a	soll
8g#	ich
8f#	sie
=12	=12
8e	schau-
8e	-en,
8B	sie
=13	=13
8.B	sel-
16B	-ber,
8B	die
=14	=14
8B	scho2n-
8e	-ste
8g#	der
=15	=15
4.g#	scho2-
=16	=16
4f#	-nen
8g#	Jung-
=17	=17
(qf#	-frau-
qe	|
qd#	|
qe	|
qf#)	|
4e}	-en.}
8r	.
!! rest to measure 21
=21	=21
8r	.
8r	.
{8e	{Du
=22	=22
4a	ar-
8g#	-mes
=23	=23
4a	Herz,
8b	was
=24	=24
4cc	pochst
8dd	du
=25	=25
4b	schwer?
8e	Die
=26	=26
8e	Stun-
8f#	-den
8g#	sind
=27	=27
8a	a-
8cc	-ber
8ee	ein
=28	=28
(8dd	fau-
8b)	|
8ee	-les
=29	=29
4.cc	Volk!
=30	=30
(8c	schlep
8d)	|
8e	-pen
=31	=31
(8f	sich
8a)	|
8cc	be-
=32	=32
(8b-	-hag-
8g)	|
8cc	-lich
=33	=33
4a	tra2-
8g	-ge,
=34	=34
(8A	schlei-
8B)	|
8c#	-chen
=35	=35
(8d	ga2h-
8f)	|
8a	-nend
=36	=36
(8g	ih-
8e)	|
8a	-re
=37	=37
4f	We-
8d	-ge;
=38	=38
8.G#	tumm-
16B	-le
8d	dich,
=39	=39
8r	.
8r	.
8b	du
=40	=40
4dd	fau-
8b	-les
=41	=41
4.g#}	Volk!}
!! rest to measure 46
=46	=46
{8.a	{To-
16a	-ben
8g#	-de
=47	=47
8a	Ei-
8a	-le
8b	mich
=48	=48
8cc	trei-
8cc	-bend
8dd	er-
=49	=49
4.b	-fasst.
=50	=50
8.b	A-
16b	-ber
8b	wohl
=51	=51
4cc	nie-
8cc	-mals
=52	=52
8.cc	lieb-
16b	-ten
8a	die
=53	=53
4g#	Ho-
8b	-ren,
=54	=54
4b	nie-
8b	-mals,
=55	=55
(8b	nie-
8cc)	|
8cc	-mals
=56	=56
8.cc	lieb-
16b	-ten
8a	die
=57	=57
4.g#	Ho-
=58	=58
4.b}	-ren;}
=59	=59
{8.a	{heim-
16a	-lich
8a	im
=60	=60
8b	grau-
8b	-sa-
8b	-men
=61	=61
8cc	Bun-
8cc	-de
8cc	ver-
=62	=62
4dd	-schwo-
8dd	-ren,
=63	=63
8.ff	spot-
16b	-ten
8b	sie
=64	=64
8ee	tu2k-
8cc	-kisch
8a	der
=65	=65
8e	Lie-
8f#	-ben-
8g#	-den
=66	=66
4.a}	Hast.}
==	==
*-	*-
